;FLAVOR:UltiGCode
;TIME:3717
;MATERIAL:7688
;MATERIAL2:0
;NOZZLE_DIAMETER:0.4
;Generated with Cura_SteamEngine 3.6.0
M82 ;absolute extrusion mode

G92 E0
G10
;LAYER_COUNT:24
;LAYER:0
M107
G0 F4320 X87.824 Y87.783 Z0.27
;TYPE:SKIRT
G11
G1 F1800 X87.991 Y87.617 E0.02225
G1 X89.477 Y86.24 E0.2137
G1 X89.657 Y86.084 E0.23621
G1 X91.226 Y84.816 E0.42685
G1 X91.414 Y84.675 E0.44905
G1 X93.04 Y83.531 E0.63693
G1 X93.234 Y83.404 E0.65884
G1 X94.925 Y82.374 E0.84595
G1 X95.187 Y82.229 E0.87425
G1 X97.952 Y80.851 E1.16619
G1 X98.281 Y80.707 E1.20013
G1 X101.118 Y79.638 E1.48663
G1 X101.398 Y79.546 E1.51448
G1 X103.288 Y79.009 E1.70016
G1 X103.574 Y78.941 E1.72794
G1 X106.579 Y78.353 E2.01729
G1 X106.873 Y78.308 E2.0454
G1 X108.847 Y78.092 E2.23306
G1 X109.08 Y78.074 E2.25514
G1 X111.079 Y77.989 E2.44422
G1 X111.319 Y77.987 E2.4669
G1 X113.403 Y78.04 E2.6639
G1 X113.641 Y78.054 E2.68643
G1 X115.559 Y78.233 E2.86847
G1 X115.784 Y78.262 E2.88991
G1 X117.754 Y78.575 E3.07841
G1 X118.048 Y78.634 E3.10674
G1 X121.03 Y79.372 E3.39704
G1 X121.261 Y79.438 E3.41975
G1 X122.267 Y79.761 E3.51959
G1 X122.49 Y79.841 E3.54198
G1 X125.211 Y80.922 E3.81867
G1 X125.478 Y81.041 E3.84629
G1 X127.338 Y81.965 E4.04255
G1 X127.548 Y82.078 E4.06509
G1 X129.26 Y83.078 E4.25245
G1 X129.46 Y83.205 E4.27484
G1 X131.147 Y84.349 E4.46746
G1 X131.341 Y84.489 E4.49007
G1 X132.948 Y85.746 E4.68287
G1 X133.132 Y85.901 E4.7056
G1 X134.649 Y87.264 E4.89833
G1 X134.816 Y87.424 E4.92018
G1 X136.152 Y88.793 E5.10095
G1 X136.311 Y88.968 E5.12329
G1 X137.648 Y90.536 E5.31802
G1 X137.796 Y90.721 E5.34041
G1 X139.009 Y92.354 E5.53264
G1 X139.146 Y92.553 E5.55547
G1 X140.24 Y94.259 E5.74699
G1 X140.361 Y94.462 E5.76932
G1 X141.345 Y96.25 E5.96219
G1 X141.477 Y96.515 E5.99017
G1 X142.694 Y99.246 E6.27271
G1 X142.821 Y99.575 E6.30604
G1 X143.758 Y102.411 E6.58829
G1 X143.839 Y102.696 E6.61629
G1 X144.312 Y104.672 E6.80829
G1 X144.359 Y104.904 E6.83066
G1 X144.697 Y106.897 E7.02169
G1 X144.729 Y107.129 E7.04382
G1 X144.928 Y109.086 E7.22971
G1 X144.944 Y109.321 E7.25197
G1 X145.015 Y111.378 E7.44647
G1 X145.015 Y111.622 E7.46953
G1 X144.944 Y113.679 E7.66403
G1 X144.928 Y113.914 E7.68629
G1 X144.729 Y115.871 E7.87218
G1 X144.688 Y116.158 E7.89958
G1 X144.137 Y119.121 E8.18438
G1 X144.069 Y119.413 E8.21272
G1 X143.534 Y121.355 E8.40307
G1 X143.444 Y121.637 E8.43105
G1 X142.399 Y124.476 E8.71693
G1 X142.287 Y124.746 E8.74455
G1 X141.458 Y126.527 E8.9302
G1 X141.351 Y126.737 E8.95247
G1 X140.362 Y128.536 E9.14647
G1 X140.24 Y128.741 E9.16901
G1 X139.146 Y130.447 E9.36053
G1 X138.975 Y130.69 E9.38861
G1 X137.152 Y133.065 E9.67154
G1 X136.965 Y133.29 E9.69919
G1 X135.589 Y134.804 E9.89252
G1 X135.417 Y134.98 E9.91578
G1 X133.92 Y136.412 E10.11155
G1 X133.745 Y136.569 E10.13377
G1 X132.241 Y137.827 E10.31906
G1 X132.055 Y137.972 E10.34134
G1 X130.434 Y139.153 E10.53087
G1 X130.241 Y139.284 E10.55292
G1 X128.533 Y140.363 E10.74383
G1 X128.327 Y140.483 E10.76636
G1 X126.571 Y141.433 E10.95503
G1 X126.362 Y141.538 E10.97713
G1 X124.544 Y142.371 E11.16611
G1 X124.327 Y142.462 E11.18835
G1 X122.441 Y143.178 E11.37899
G1 X122.213 Y143.255 E11.40173
G1 X120.214 Y143.861 E11.59912
G1 X119.927 Y143.935 E11.62713
G1 X117.066 Y144.546 E11.90359
G1 X116.777 Y144.596 E11.93131
G1 X114.705 Y144.861 E12.12871
G1 X114.463 Y144.883 E12.15167
G1 X112.45 Y145 E12.34222
G1 X112.215 Y145.006 E12.36443
G1 X110.222 Y144.989 E12.55278
G1 X109.986 Y144.979 E12.5751
G1 X107.962 Y144.826 E12.76692
G1 X107.669 Y144.791 E12.7948
G1 X104.716 Y144.317 E13.07743
G1 X104.37 Y144.244 E13.11085
G1 X101.45 Y143.468 E13.39637
G1 X101.166 Y143.379 E13.42449
G1 X99.243 Y142.69 E13.61753
G1 X98.968 Y142.578 E13.64559
G1 X96.222 Y141.324 E13.93086
G1 X95.959 Y141.191 E13.95871
G1 X94.249 Y140.23 E14.14408
G1 X94.049 Y140.109 E14.16617
G1 X92.312 Y138.975 E14.3622
G1 X92.113 Y138.835 E14.38519
G1 X90.493 Y137.61 E14.57712
G1 X90.31 Y137.461 E14.59942
G1 X88.798 Y136.15 E14.78854
G1 X88.625 Y135.99 E14.81081
G1 X87.184 Y134.561 E15.00259
G1 X87.019 Y134.386 E15.02531
G1 X85.692 Y132.877 E15.21521
G1 X85.544 Y132.697 E15.23723
G1 X84.343 Y131.134 E15.4235
G1 X84.207 Y130.944 E15.44558
G1 X83.067 Y129.237 E15.63956
G1 X82.94 Y129.032 E15.66235
G1 X81.937 Y127.282 E15.85296
G1 X81.826 Y127.072 E15.87541
G1 X80.951 Y125.275 E16.06429
G1 X80.834 Y125.007 E16.09192
G1 X79.749 Y122.211 E16.37534
G1 X79.637 Y121.874 E16.4089
G1 X78.825 Y118.934 E16.69713
G1 X78.748 Y118.587 E16.73072
G1 X78.249 Y115.653 E17.01196
G1 X78.212 Y115.361 E17.03978
G1 X78.039 Y113.328 E17.23259
G1 X78.027 Y113.09 E17.25511
G1 X77.992 Y111.056 E17.44735
G1 X77.995 Y110.819 E17.46975
G1 X78.094 Y108.841 E17.65691
G1 X78.114 Y108.61 E17.67882
G1 X78.345 Y106.625 E17.86767
G1 X78.392 Y106.328 E17.89608
G1 X79.006 Y103.315 E18.18666
G1 X79.078 Y103.024 E18.21499
G1 X79.653 Y101.07 E18.40747
G1 X79.728 Y100.845 E18.42989
G1 X80.42 Y98.97 E18.61876
G1 X80.508 Y98.754 E18.6408
G1 X81.316 Y96.943 E18.8282
G1 X81.419 Y96.731 E18.85047
G1 X82.384 Y94.907 E19.04547
G1 X82.504 Y94.697 E19.06833
G1 X83.542 Y93.023 E19.25447
G1 X83.671 Y92.831 E19.27633
G1 X84.848 Y91.185 E19.46755
G1 X84.995 Y90.993 E19.4904
G1 X86.309 Y89.399 E19.68562
G1 X86.466 Y89.221 E19.70805
G1 X87.824 Y87.783 E19.89496
G0 F4320 X88.079 Y88.023
G1 F1800 X88.229 Y87.874 E19.91494
G1 X89.715 Y86.497 E20.10638
G1 X89.877 Y86.357 E20.12662
G1 X91.446 Y85.089 E20.31725
G1 X91.615 Y84.961 E20.33729
G1 X93.241 Y83.817 E20.52517
G1 X93.416 Y83.702 E20.54495
G1 X95.107 Y82.672 E20.73206
G1 X95.343 Y82.542 E20.75753
G1 X98.108 Y81.164 E21.04947
G1 X98.404 Y81.035 E21.07998
G1 X101.241 Y79.966 E21.36648
G1 X101.493 Y79.883 E21.39155
G1 X103.383 Y79.346 E21.57723
G1 X103.641 Y79.284 E21.6023
G1 X106.646 Y78.696 E21.89166
G1 X106.911 Y78.656 E21.91699
G1 X108.885 Y78.44 E22.10464
G1 X109.095 Y78.424 E22.12455
G1 X111.094 Y78.339 E22.31362
G1 X111.31 Y78.337 E22.33403
G1 X113.394 Y78.39 E22.53104
G1 X113.608 Y78.403 E22.5513
G1 X115.526 Y78.582 E22.73334
G1 X115.729 Y78.607 E22.75266
G1 X117.699 Y78.92 E22.94116
G1 X117.964 Y78.974 E22.96672
G1 X120.946 Y79.712 E23.25702
G1 X121.154 Y79.771 E23.27745
G1 X122.16 Y80.094 E23.3773
G1 X122.361 Y80.166 E23.39748
G1 X125.082 Y81.247 E23.67416
G1 X125.323 Y81.355 E23.69912
G1 X127.183 Y82.279 E23.89538
G1 X127.371 Y82.38 E23.91555
G1 X129.083 Y83.38 E24.10291
G1 X129.264 Y83.494 E24.12312
G1 X130.951 Y84.638 E24.31574
G1 X131.125 Y84.765 E24.3361
G1 X132.732 Y86.022 E24.5289
G1 X132.898 Y86.161 E24.54936
G1 X134.415 Y87.524 E24.74208
G1 X134.565 Y87.668 E24.76173
G1 X135.901 Y89.037 E24.9425
G1 X136.045 Y89.195 E24.9627
G1 X137.382 Y90.763 E25.15743
G1 X137.515 Y90.93 E25.1776
G1 X138.728 Y92.563 E25.36984
G1 X138.852 Y92.742 E25.39042
G1 X139.946 Y94.448 E25.58193
G1 X140.055 Y94.631 E25.60206
G1 X141.039 Y96.419 E25.79493
G1 X141.157 Y96.658 E25.82011
G1 X142.374 Y99.389 E26.10266
G1 X142.489 Y99.685 E26.13267
G1 X143.426 Y102.521 E26.41492
G1 X143.499 Y102.778 E26.44017
G1 X143.972 Y104.754 E26.63217
G1 X144.014 Y104.962 E26.65223
G1 X144.352 Y106.955 E26.84325
G1 X144.381 Y107.165 E26.86329
G1 X144.58 Y109.122 E27.04918
G1 X144.594 Y109.333 E27.06916
G1 X144.665 Y111.39 E27.26366
G1 X144.665 Y111.61 E27.28445
G1 X144.594 Y113.667 E27.47896
G1 X144.58 Y113.878 E27.49894
G1 X144.381 Y115.835 E27.68483
G1 X144.343 Y116.094 E27.70957
G1 X143.792 Y119.057 E27.99437
G1 X143.732 Y119.32 E28.01986
G1 X143.197 Y121.262 E28.21022
G1 X143.116 Y121.516 E28.23541
G1 X142.071 Y124.355 E28.5213
G1 X141.969 Y124.598 E28.5462
G1 X141.14 Y126.379 E28.73184
G1 X141.044 Y126.569 E28.75196
G1 X140.055 Y128.368 E28.94596
G1 X139.946 Y128.552 E28.96617
G1 X138.852 Y130.258 E29.15769
G1 X138.698 Y130.477 E29.18299
G1 X136.875 Y132.852 E29.46592
G1 X136.706 Y133.054 E29.49081
G1 X135.33 Y134.568 E29.68414
G1 X135.175 Y134.727 E29.70513
G1 X133.678 Y136.159 E29.9009
G1 X133.52 Y136.3 E29.92091
G1 X132.016 Y137.558 E30.1062
G1 X131.849 Y137.689 E30.12626
G1 X130.228 Y138.87 E30.31579
G1 X130.054 Y138.988 E30.33565
G1 X128.346 Y140.067 E30.52657
G1 X128.161 Y140.176 E30.54686
G1 X126.405 Y141.126 E30.73553
G1 X126.217 Y141.219 E30.75535
G1 X124.399 Y142.052 E30.94433
G1 X124.203 Y142.134 E30.96441
G1 X122.317 Y142.85 E31.15504
G1 X122.111 Y142.92 E31.1756
G1 X120.112 Y143.526 E31.373
G1 X119.854 Y143.593 E31.39819
G1 X116.993 Y144.204 E31.67465
G1 X116.733 Y144.248 E31.69957
G1 X114.661 Y144.513 E31.89697
G1 X114.442 Y144.534 E31.91776
G1 X112.429 Y144.651 E32.10831
G1 X112.218 Y144.656 E32.12825
G1 X110.225 Y144.639 E32.3166
G1 X110.013 Y144.63 E32.33665
G1 X107.989 Y144.477 E32.52847
G1 X107.725 Y144.446 E32.55358
G1 X104.772 Y143.972 E32.83622
G1 X104.46 Y143.905 E32.86637
G1 X101.54 Y143.129 E33.15189
G1 X101.284 Y143.05 E33.17721
G1 X99.361 Y142.361 E33.37024
G1 X99.113 Y142.26 E33.39555
G1 X96.367 Y141.006 E33.68082
G1 X96.13 Y140.886 E33.70593
G1 X94.42 Y139.925 E33.89129
G1 X94.24 Y139.816 E33.91118
G1 X92.503 Y138.682 E34.10721
G1 X92.324 Y138.555 E34.12795
G1 X90.704 Y137.33 E34.31988
G1 X90.539 Y137.197 E34.33991
G1 X89.027 Y135.886 E34.52902
G1 X88.871 Y135.741 E34.54915
G1 X87.43 Y134.312 E34.74093
G1 X87.282 Y134.155 E34.76132
G1 X85.955 Y132.646 E34.95121
G1 X85.821 Y132.484 E34.97108
G1 X84.62 Y130.921 E35.15735
G1 X84.498 Y130.749 E35.17728
G1 X83.358 Y129.042 E35.37126
G1 X83.243 Y128.858 E35.39176
G1 X82.24 Y127.108 E35.58237
G1 X82.14 Y126.919 E35.60258
G1 X81.265 Y125.122 E35.79146
G1 X81.16 Y124.881 E35.8163
G1 X80.075 Y122.085 E36.09972
G1 X79.975 Y121.781 E36.12996
G1 X79.163 Y118.841 E36.41819
G1 X79.093 Y118.528 E36.4485
G1 X78.594 Y115.594 E36.72975
G1 X78.56 Y115.331 E36.75481
G1 X78.387 Y113.298 E36.94762
G1 X78.376 Y113.084 E36.96787
G1 X78.341 Y111.05 E37.16011
G1 X78.345 Y110.836 E37.18034
G1 X78.444 Y108.858 E37.36749
G1 X78.461 Y108.65 E37.38721
G1 X78.692 Y106.665 E37.57606
G1 X78.735 Y106.398 E37.60162
G1 X79.349 Y103.385 E37.8922
G1 X79.414 Y103.123 E37.91771
G1 X79.989 Y101.169 E38.11019
G1 X80.056 Y100.966 E38.13039
G1 X80.748 Y99.091 E38.31926
G1 X80.827 Y98.896 E38.33914
G1 X81.635 Y97.085 E38.52655
G1 X81.729 Y96.894 E38.54666
G1 X82.694 Y95.07 E38.74167
G1 X82.802 Y94.882 E38.76216
G1 X83.84 Y93.208 E38.94829
G1 X83.955 Y93.034 E38.968
G1 X85.132 Y91.388 E39.15923
G1 X85.265 Y91.215 E39.17985
G1 X86.579 Y89.621 E39.37506
G1 X86.721 Y89.461 E39.39528
G1 X88.079 Y88.023 E39.58219
G10
;MESH:Peitoral.stl
G0 F4320 X90.996 Y88.658
G0 X91.84 Y89.568
G0 X140.235 Y109.873
;TYPE:WALL-INNER
G11
G1 F1800 X140.228 Y109.867 E39.58306
G1 X139.972 Y109.631 E39.61596
G1 X139.674 Y109.432 E39.64983
G1 X139.355 Y109.283 E39.6831
G1 X139.017 Y109.179 E39.71652
G1 X138.663 Y109.129 E39.7503
G1 X138.307 Y109.131 E39.78394
G1 X137.957 Y109.187 E39.81744
G1 X137.619 Y109.293 E39.85091
G1 X137.299 Y109.451 E39.88464
G1 X137.008 Y109.652 E39.91806
G1 X136.749 Y109.896 E39.95169
G1 X136.531 Y110.174 E39.98507
G1 X136.354 Y110.481 E40.01856
G1 X136.227 Y110.814 E40.05224
G1 X136.149 Y111.159 E40.08567
G1 X136.125 Y111.516 E40.11948
G1 X136.154 Y111.873 E40.15333
G1 X136.237 Y112.217 E40.18677
G1 X136.368 Y112.545 E40.22014
G1 X136.547 Y112.853 E40.25381
G1 X136.77 Y113.127 E40.28719
G1 X137.032 Y113.369 E40.3209
G1 X137.33 Y113.568 E40.35476
G1 X137.649 Y113.717 E40.38803
G1 X137.987 Y113.821 E40.42145
G1 X138.341 Y113.871 E40.45524
G1 X138.697 Y113.869 E40.48888
G1 X139.047 Y113.813 E40.52237
G1 X139.385 Y113.707 E40.55585
G1 X139.705 Y113.549 E40.58957
G1 X139.996 Y113.348 E40.623
G1 X140.232 Y113.126 E40.65361
G1 X140.256 Y113.104 E40.65669
G1 X140.445 Y112.862 E40.68571
G1 X140.473 Y112.826 E40.69002
G1 X140.602 Y112.603 E40.71436
G1 X140.595 Y112.83 E40.71748
G1 X140.589 Y112.975 E40.72628
G1 X140.58 Y113.124 E40.73467
G1 X140.578 Y113.156 E40.7376
G1 X140.525 Y113.937 E40.81157
G1 X140.428 Y114.902 E40.90323
G1 X140.296 Y115.882 E40.99667
G1 X140.134 Y116.837 E41.08821
G1 X139.935 Y117.809 E41.18197
G1 X139.712 Y118.748 E41.27317
G1 X139.452 Y119.691 E41.36561
G1 X139.161 Y120.625 E41.45806
G1 X138.83 Y121.571 E41.55277
G1 X138.482 Y122.47 E41.64387
G1 X138.103 Y123.362 E41.73545
G1 X137.685 Y124.256 E41.82872
G1 X137.246 Y125.122 E41.92047
G1 X136.767 Y125.989 E42.01407
G1 X136.267 Y126.83 E42.10653
G1 X135.744 Y127.643 E42.19788
G1 X135.184 Y128.453 E42.29094
G1 X134.594 Y129.248 E42.3845
G1 X133.989 Y130.01 E42.47644
G1 X133.354 Y130.754 E42.56888
G1 X132.695 Y131.477 E42.66132
G1 X132.003 Y132.187 E42.75502
G1 X131.31 Y132.853 E42.84584
G1 X130.581 Y133.506 E42.93833
G1 X129.827 Y134.137 E43.03124
G1 X129.056 Y134.74 E43.12374
G1 X128.269 Y135.313 E43.21574
G1 X127.446 Y135.872 E43.30975
G1 X126.638 Y136.382 E43.40005
G1 X125.787 Y136.88 E43.49322
G1 X124.913 Y137.353 E43.58714
G1 X124.058 Y137.779 E43.67741
G1 X123.147 Y138.194 E43.77201
G1 X122.247 Y138.57 E43.86418
G1 X121.342 Y138.912 E43.95561
G1 X120.413 Y139.229 E44.04837
G1 X119.47 Y139.514 E44.14146
G1 X118.541 Y139.761 E44.2323
G1 X117.559 Y139.988 E44.32755
G1 X116.622 Y140.172 E44.41779
G1 X115.635 Y140.33 E44.51225
G1 X114.692 Y140.45 E44.60208
G1 X113.694 Y140.542 E44.69679
G1 X113.169 Y140.573 E44.74649
G1 X113.01 Y140.582 E44.76154
G1 X112.733 Y140.599 E44.78776
G1 X112.707 Y140.599 E44.79022
G1 X112.597 Y140.602 E44.80062
G1 X112.705 Y140.549 E44.80209
G1 X112.996 Y140.348 E44.8187
G1 X113.112 Y140.239 E44.83139
G1 X113.256 Y140.104 E44.85005
G1 X113.473 Y139.826 E44.88337
G1 X113.651 Y139.517 E44.91707
G1 X113.777 Y139.184 E44.95072
G1 X113.855 Y138.841 E44.98396
G1 X113.879 Y138.484 E45.01777
G1 X113.85 Y138.126 E45.05171
G1 X113.768 Y137.785 E45.08486
G1 X113.638 Y137.455 E45.11838
G1 X113.457 Y137.147 E45.15214
G1 X113.235 Y136.873 E45.18546
G1 X112.972 Y136.631 E45.21923
G1 X112.674 Y136.432 E45.2531
G1 X112.355 Y136.283 E45.28637
G1 X112.017 Y136.179 E45.31979
G1 X111.663 Y136.129 E45.35357
G1 X111.307 Y136.131 E45.38722
G1 X110.957 Y136.187 E45.42071
G1 X110.619 Y136.293 E45.45419
G1 X110.299 Y136.451 E45.48791
G1 X110.008 Y136.652 E45.52133
G1 X109.749 Y136.896 E45.55496
G1 X109.531 Y137.174 E45.58834
G1 X109.354 Y137.481 E45.62183
G1 X109.227 Y137.814 E45.65551
G1 X109.149 Y138.159 E45.68894
G1 X109.125 Y138.516 E45.72275
G1 X109.154 Y138.873 E45.7566
G1 X109.237 Y139.217 E45.79004
G1 X109.368 Y139.545 E45.82341
G1 X109.547 Y139.853 E45.85708
G1 X109.77 Y140.127 E45.89046
G1 X109.968 Y140.31 E45.91594
G1 X109.995 Y140.335 E45.91942
G1 X110.032 Y140.369 E45.92417
G1 X110.33 Y140.568 E45.95803
G1 X110.396 Y140.599 E45.96492
G1 X110.329 Y140.597 E45.96505
G1 X110.023 Y140.584 E45.97699
G1 X109.776 Y140.573 E45.99721
G1 X109.739 Y140.571 E46.00059
G1 X108.827 Y140.503 E46.08701
G1 X107.839 Y140.393 E46.18095
G1 X106.876 Y140.256 E46.27287
G1 X105.912 Y140.083 E46.36542
G1 X104.95 Y139.878 E46.45837
G1 X104.01 Y139.646 E46.54987
G1 X103.049 Y139.371 E46.64433
G1 X102.134 Y139.078 E46.73512
G1 X101.212 Y138.747 E46.8277
G1 X100.306 Y138.387 E46.91982
G1 X99.402 Y137.992 E47.01305
G1 X98.517 Y137.569 E47.10575
G1 X97.638 Y137.113 E47.19932
G1 X96.802 Y136.642 E47.29
G1 X95.957 Y136.129 E47.38342
G1 X95.137 Y135.592 E47.47604
G1 X94.338 Y135.029 E47.56841
G1 X93.559 Y134.441 E47.66064
G1 X92.799 Y133.826 E47.75303
G1 X92.065 Y133.189 E47.84488
G1 X91.342 Y132.519 E47.93802
G1 X90.647 Y131.83 E48.03051
G1 X89.97 Y131.111 E48.12383
G1 X89.321 Y130.376 E48.21649
G1 X88.712 Y129.635 E48.30713
G1 X88.106 Y128.844 E48.4013
G1 X87.535 Y128.048 E48.49387
G1 X86.999 Y127.244 E48.58518
G1 X86.484 Y126.411 E48.67773
G1 X85.995 Y125.558 E48.77065
