;FLAVOR:UltiGCode
;TIME:7936
;MATERIAL:25955
;MATERIAL2:0
;NOZZLE_DIAMETER:0.4
;Generated with Cura_SteamEngine 3.6.0
M82 ;absolute extrusion mode

G92 E0
G10
;LAYER_COUNT:65
;LAYER:0
M107
G0 F9000 X58.616 Y84.742 Z0.27
;TYPE:SKIRT
G11
G1 F2100 X61.357 Y82.903 E0.31192
G1 X61.615 Y82.748 E0.34036
G1 X63.685 Y81.628 E0.56278
G1 X63.913 Y81.516 E0.58678
G1 X66.846 Y80.22 E0.8898
G1 X67.275 Y80.066 E0.93288
G1 X71.343 Y78.93 E1.33201
G1 X71.682 Y78.855 E1.36482
G1 X74.267 Y78.43 E1.61238
G1 X74.461 Y78.404 E1.63088
G1 X75.818 Y78.266 E1.75978
G1 X76.034 Y78.252 E1.78023
G1 X78.517 Y78.17 E2.015
G1 X78.773 Y78.172 E2.0392
G1 X81.775 Y78.315 E2.32321
G1 X82.069 Y78.342 E2.35111
G1 X83.814 Y78.589 E2.51765
G1 X84.07 Y78.636 E2.54225
G1 X91.218 Y80.255 E3.23485
G1 X93.856 Y80.781 E3.48904
G1 X99.282 Y81.628 E4.00801
G1 X104.749 Y82.167 E4.52715
G1 X110.2 Y82.396 E5.04272
G1 X115.692 Y82.314 E5.56177
G1 X121.15 Y81.925 E6.07886
G1 X126.582 Y81.226 E6.59642
G1 X131.975 Y80.221 E7.11483
G1 X134.638 Y79.606 E7.37311
G1 X137.426 Y78.908 E7.64471
G1 X137.682 Y78.855 E7.66941
G1 X140.267 Y78.43 E7.91697
G1 X140.461 Y78.404 E7.93547
G1 X141.818 Y78.266 E8.06437
G1 X142.034 Y78.252 E8.08482
G1 X144.517 Y78.17 E8.31959
G1 X144.773 Y78.172 E8.34379
G1 X147.775 Y78.315 E8.6278
G1 X148.069 Y78.342 E8.6557
G1 X149.814 Y78.589 E8.82224
G1 X150.024 Y78.626 E8.84239
G1 X152.895 Y79.231 E9.11966
G1 X153.144 Y79.295 E9.14396
G1 X154.739 Y79.769 E9.3012
G1 X154.996 Y79.857 E9.32687
G1 X158.324 Y81.164 E9.66475
G1 X158.631 Y81.304 E9.69664
G1 X161.292 Y82.692 E9.98025
G1 X161.518 Y82.822 E10.00489
G1 X163.087 Y83.812 E10.18021
G1 X163.265 Y83.932 E10.2005
G1 X164.472 Y84.813 E10.34171
G1 X164.854 Y85.142 E10.38935
G1 X165.033 Y85.338 E10.41444
G1 X169.474 Y90.634 E11.06758
G1 X173.015 Y94.377 E11.5545
G1 X173.331 Y94.769 E11.60208
G1 X173.56 Y95.163 E11.64514
G1 X175.199 Y98.51 E11.99732
G1 X175.404 Y99.043 E12.05129
G1 X176.797 Y103.977 E12.53578
G1 X176.866 Y104.278 E12.56496
G1 X177.362 Y107.036 E12.82977
G1 X177.4 Y107.321 E12.85694
G1 X177.628 Y109.927 E13.10415
G1 X177.64 Y110.199 E13.12988
G1 X177.644 Y112.713 E13.36745
G1 X177.627 Y113.049 E13.39925
G1 X177.227 Y116.867 E13.76202
G1 X177.171 Y117.215 E13.79533
G1 X176.58 Y119.915 E14.05652
G1 X176.524 Y120.132 E14.0777
G1 X175.383 Y124.013 E14.45998
G1 X175.189 Y124.513 E14.51066
G1 X173.563 Y127.835 E14.86017
G1 X173.306 Y128.268 E14.90776
G1 X173.012 Y128.627 E14.95161
G1 X169.887 Y131.913 E15.38014
G1 X166.299 Y136.093 E15.90071
G1 X165.123 Y137.572 E16.07927
G1 X164.78 Y137.94 E16.12681
G1 X164.505 Y138.164 E16.16033
G1 X163.376 Y138.985 E16.29225
G1 X163.152 Y139.134 E16.31767
G1 X160.08 Y140.992 E16.65694
G1 X159.742 Y141.169 E16.693
G1 X156.42 Y142.667 E17.03737
G1 X155.964 Y142.832 E17.0832
G1 X151.244 Y144.142 E17.5461
G1 X150.891 Y144.219 E17.58024
G1 X148.52 Y144.594 E17.80708
G1 X148.264 Y144.624 E17.83144
G1 X145.98 Y144.797 E18.0479
G1 X145.727 Y144.806 E18.07182
G1 X142.897 Y144.794 E18.33926
G1 X142.596 Y144.778 E18.36774
G1 X139.597 Y144.48 E18.65254
G1 X139.292 Y144.435 E18.68168
G1 X136.827 Y143.945 E18.91918
G1 X136.722 Y143.922 E18.92934
G1 X130.515 Y142.469 E19.53176
G1 X127.881 Y141.982 E19.78489
G1 X122.454 Y141.208 E20.30293
G1 X116.983 Y140.742 E20.82181
G1 X111.511 Y140.587 E21.33912
G1 X106.04 Y140.74 E21.85633
G1 X100.566 Y141.206 E22.3755
G1 X95.163 Y141.974 E22.89121
G1 X89.766 Y143.056 E23.41138
G1 X85.898 Y144.007 E23.78779
G1 X85.676 Y144.053 E23.80921
G1 X82.559 Y144.587 E24.10806
G1 X82.263 Y144.624 E24.13625
G1 X79.98 Y144.797 E24.35261
G1 X79.727 Y144.806 E24.37654
G1 X76.897 Y144.794 E24.64397
G1 X76.596 Y144.778 E24.67246
G1 X73.597 Y144.48 E24.95726
G1 X73.32 Y144.441 E24.9837
G1 X71.44 Y144.085 E25.16451
G1 X71.256 Y144.044 E25.18233
G1 X69.587 Y143.624 E25.34496
G1 X69.371 Y143.562 E25.3662
G1 X66.88 Y142.744 E25.61397
G1 X66.688 Y142.673 E25.63331
G1 X65.276 Y142.106 E25.7771
G1 X65.031 Y141.996 E25.80248
G1 X61.877 Y140.408 E26.13618
G1 X61.542 Y140.213 E26.17281
G1 X58.628 Y138.268 E26.50389
G1 X58.233 Y137.956 E26.55146
G1 X57.91 Y137.608 E26.59633
G1 X56.592 Y135.958 E26.79589
G1 X52.986 Y131.773 E27.31793
G1 X49.988 Y128.626 E27.72867
G1 X49.671 Y128.235 E27.77624
G1 X49.491 Y127.94 E27.8089
G1 X48.636 Y126.35 E27.9795
G1 X48.533 Y126.141 E28.00152
G1 X47.757 Y124.404 E28.1813
G1 X47.601 Y123.973 E28.22461
G1 X46.216 Y119.078 E28.70535
G1 X46.147 Y118.781 E28.73417
G1 X45.644 Y116.012 E29.00012
G1 X45.605 Y115.724 E29.02758
G1 X45.374 Y113.106 E29.27594
G1 X45.362 Y112.832 E29.30186
G1 X45.358 Y110.25 E29.54586
G1 X45.369 Y109.987 E29.57074
G1 X45.563 Y107.61 E29.79611
G1 X45.584 Y107.416 E29.81455
G1 X45.768 Y106.138 E29.93657
G1 X45.806 Y105.928 E29.95673
G1 X46.38 Y103.237 E30.21675
G1 X46.439 Y103.004 E30.23947
G1 X47.628 Y98.955 E30.63825
G1 X47.826 Y98.447 E30.68978
G1 X49.448 Y95.154 E31.03667
G1 X49.705 Y94.721 E31.08425
G1 X49.969 Y94.397 E31.12375
G1 X54.632 Y89.374 E31.77143
G1 X56.384 Y87.297 E32.02821
G1 X57.906 Y85.395 E32.25841
G1 X58.251 Y85.028 E32.30601
G1 X58.616 Y84.742 E32.34983
G0 F9000 X60.7 Y87.351
;TYPE:SUPPORT
G1 F2100 X61.019 Y87.115 E32.38733
G1 X61.837 Y86.553 E32.48111
G1 X61.875 Y86.535 E32.48509
G1 X62.484 Y86.134 E32.55399
G1 X63.608 Y85.447 E32.67848
G1 X65.076 Y84.667 E32.83557
G1 X66.234 Y84.12 E32.9566
G1 X68.174 Y83.283 E33.15626
G1 X69.276 Y82.953 E33.26497
G1 X69.812 Y82.782 E33.31814
G1 X70.621 Y82.555 E33.39754
G1 X71.61 Y82.3 E33.49406
G1 X72.039 Y82.196 E33.53577
G1 X72.871 Y82.023 E33.61608
G1 X74.083 Y81.817 E33.73226
G1 X75.548 Y81.649 E33.87161
G1 X75.936 Y81.611 E33.90845
G1 X77.026 Y81.54 E34.01167
G1 X77.579 Y81.521 E34.06396
G1 X78.291 Y81.511 E34.13125
G1 X80.459 Y81.558 E34.33618
G1 X80.797 Y81.59 E34.36826
G1 X81.35 Y81.627 E34.42063
G1 X82.637 Y81.787 E34.54319
G1 X83.596 Y81.937 E34.63492
G1 X84.125 Y82.032 E34.68571
G1 X84.913 Y82.193 E34.76171
G1 X85.915 Y82.427 E34.85895
G1 X87.276 Y82.812 E34.99261
G1 X88.007 Y83.045 E35.06512
G1 X88.484 Y83.213 E35.11291
G1 X89.414 Y83.555 E35.20655
G1 X90.239 Y83.892 E35.29076
G1 X91.222 Y84.328 E35.39238
G1 X91.807 Y84.603 E35.45347
G1 X92.917 Y85.188 E35.57204
G1 X94.371 Y86.025 E35.73058
G1 X94.952 Y86.411 E35.7965
G1 X95.18 Y86.552 E35.82183
G1 X96.278 Y87.34 E35.94955
G1 X95.676 Y87.644 E36.01328
G1 X95.442 Y88.026 E36.05561
G1 X95.453 Y134.957 E40.49059
G1 X95.688 Y135.338 E40.5329
G1 X96.3 Y135.647 E40.59768
G1 X95.859 Y135.973 E40.64951
G1 X95.284 Y136.367 E40.71538
G1 X94.743 Y136.717 E40.77627
G1 X94.467 Y136.873 E40.80623
G1 X93.814 Y137.297 E40.87981
G1 X92.413 Y138.1 E41.03241
G1 X92.35 Y138.1 E41.03836
G1 X91.318 Y138.622 E41.14765
G1 X89.309 Y139.533 E41.35611
G1 X88.69 Y139.728 E41.41744
G1 X85.781 Y140.604 E41.70453
G1 X84.739 Y140.843 E41.80556
G1 X84.039 Y140.98 E41.87296
G1 X83.271 Y141.111 E41.94659
G1 X82.586 Y141.219 E42.01212
G1 X81.014 Y141.394 E42.16159
G1 X80.596 Y141.418 E42.20115
G1 X80.313 Y141.444 E42.22801
G1 X80.127 Y141.452 E42.2456
G1 X78.507 Y141.481 E42.39872
G1 X77.122 Y141.461 E42.52962
G1 X76.599 Y141.444 E42.57906
G1 X75.256 Y141.323 E42.70649
G1 X74.322 Y141.212 E42.79538
G1 X72.985 Y140.991 E42.92344
G1 X72.107 Y140.81 E43.00815
G1 X71.401 Y140.652 E43.07652
G1 X71.18 Y140.586 E43.09832
G1 X70.459 Y140.401 E43.16866
G1 X69.779 Y140.202 E43.23561
G1 X68.956 Y139.934 E43.31741
G1 X68.239 Y139.69 E43.38898
G1 X67.607 Y139.453 E43.45276
G1 X66.703 Y139.08 E43.54518
G1 X65.877 Y138.725 E43.63014
G1 X65.535 Y138.55 E43.66644
G1 X65.096 Y138.347 E43.71215
G1 X63.331 Y137.398 E43.90152
G1 X62.59 Y136.93 E43.98434
G1 X62.037 Y136.598 E44.0453
G1 X60.718 Y135.657 E44.19841
G1 X61.325 Y135.349 E44.26274
G1 X61.558 Y134.966 E44.3051
G1 X61.547 Y88.041 E48.73951
G1 X61.312 Y87.66 E48.78182
G1 X60.7 Y87.351 E48.8466
G0 F9000 X61.686 Y88.654
G1 F2100 X95.303 Y88.654 E52.02341
G0 F9000 X95.653 Y87.5
G1 F2100 X95.653 Y87.064 E52.06461
G0 F9000 X94.564 Y86.321
G1 F2100 X62.453 Y86.321 E55.0991
G0 F9000 X62.991 Y85.987
G1 F2100 X62.991 Y137.018 E59.92153
G0 F9000 X64.088 Y137.647
G1 F2100 X92.92 Y137.647 E62.64615
G0 F9000 X93.32 Y137.419
G1 F2100 X93.32 Y85.582 E67.54475
G0 F9000 X90.987 Y84.378
G1 F2100 X90.987 Y138.62 E72.67062
G0 F9000 X88.654 Y139.593
G1 F2100 X88.654 Y83.429 E77.97812
G0 F9000 X90.104 Y83.988
G1 F2100 X66.894 Y83.988 E80.17146
G0 F9000 X67.657 Y83.658
G1 F2100 X67.657 Y139.322 E85.43171
G0 F9000 X69.555 Y139.98
G1 F2100 X87.365 Y139.98 E87.11476
G0 F9000 X86.321 Y140.296
G1 F2100 X86.321 Y82.688 E92.55871
G0 F9000 X83.988 Y82.15
G1 F2100 X83.988 Y140.846 E98.10548
G0 F9000 X81.655 Y141.183
G1 F2100 X81.655 Y81.807 E103.71652
G0 F9000 X79.322 Y81.674
G1 F2100 X79.322 Y141.327 E109.35372
G0 F9000 X76.989 Y141.316
G1 F2100 X76.989 Y81.682 E114.98914
G0 F9000 X78.007 Y81.655
G1 F2100 X78.474 Y81.655 E115.03327
G0 F9000 X74.656 Y81.892
G1 F2100 X74.656 Y141.11 E120.62937
G0 F9000 X72.323 Y140.711
G1 F2100 X72.323 Y82.279 E126.15119
G0 F9000 X69.99 Y82.877
G1 F2100 X69.99 Y140.117 E131.56037
G0 F9000 X65.324 Y138.298
G1 F2100 X65.324 Y84.704 E136.62501
G0 F9000 X61.686 Y90.987
G1 F2100 X95.303 Y90.987 E139.80181
G0 F9000 X95.304 Y93.32
G1 F2100 X61.687 Y93.32 E142.97862
G0 F9000 X61.687 Y95.653
G1 F2100 X95.304 Y95.653 E146.15543
G0 F9000 X95.305 Y97.986
G1 F2100 X61.688 Y97.986 E149.33223
G0 F9000 X61.688 Y100.319
G1 F2100 X95.305 Y100.319 E152.50904
G0 F9000 X95.306 Y102.652
G1 F2100 X61.689 Y102.652 E155.68585
G0 F9000 X61.689 Y104.985
G1 F2100 X95.306 Y104.985 E158.86265
G0 F9000 X95.307 Y107.318
G1 F2100 X61.69 Y107.318 E162.03946
G0 F9000 X61.691 Y109.651
G1 F2100 X95.308 Y109.651 E165.21627
G0 F9000 X95.308 Y111.984
G1 F2100 X61.691 Y111.984 E168.39307
G0 F9000 X61.692 Y114.317
G1 F2100 X95.309 Y114.317 E171.56988
G0 F9000 X95.309 Y116.65
G1 F2100 X61.692 Y116.65 E174.74668
G0 F9000 X61.693 Y118.983
G1 F2100 X95.309 Y118.983 E177.9234
G0 F9000 X95.309 Y121.316
G1 F2100 X61.693 Y121.316 E181.10011
G0 F9000 X61.694 Y123.649
G1 F2100 X95.31 Y123.649 E184.27682
G0 F9000 X95.31 Y125.982
G1 F2100 X61.694 Y125.982 E187.45353
G0 F9000 X61.695 Y128.315
G1 F2100 X95.311 Y128.315 E190.63024
G0 F9000 X95.311 Y130.648
G1 F2100 X61.695 Y130.648 E193.80696
G0 F9000 X61.696 Y132.981
G1 F2100 X95.312 Y132.981 E196.98367
G0 F9000 X95.509 Y135.314
G1 F2100 X61.51 Y135.314 E200.19657
G0 F9000 X95.653 Y135.477
G1 F2100 X95.653 Y135.945 E200.2408
G0 F9000 X51.835 Y99.926
G1 F2100 X51.435 Y99.847 E200.27933
G1 X51.435 Y99.541 E200.30825
G1 X51.026 Y99.46 E200.34765
G1 X51.248 Y98.946 E200.40056
G1 X51.49 Y98.445 E200.45314
G1 X51.714 Y97.961 E200.50354
G1 X52.368 Y96.764 E200.63244
G1 X52.67 Y96.84 E200.66186
G1 X52.67 Y97.818 E200.75428
G1 X52.287 Y98.121 E200.80044
G1 X52.287 Y98.698 E200.85496
G1 X52.236 Y98.687 E200.85989
G1 X51.835 Y99.013 E200.90873
G1 X51.835 Y99.926 E200.99501
G0 F9000 X51.326 Y99.376
G1 F2100 X51.326 Y99.119 E201.01929
G0 F9000 X51.86 Y97.986
G1 F2100 X52.23 Y97.986 E201.05426
G0 F9000 X51.838 Y123.065
G1 F2100 X51.838 Y123.991 E201.14177
G1 X52.242 Y124.315 E201.19071
G1 X52.278 Y124.307 E201.19419
G1 X52.278 Y124.866 E201.24702
G1 X52.667 Y125.171 E201.29373
G1 X52.667 Y126.162 E201.38738
G1 X52.366 Y126.239 E201.41674
G1 X51.798 Y125.211 E201.52773
G1 X51.505 Y124.588 E201.59279
G1 X51.35 Y124.279 E201.62545
G1 X51.021 Y123.532 E201.70259
G1 X51.428 Y123.451 E201.74181
G1 X51.428 Y123.145 E201.77072
G1 X51.838 Y123.065 E201.8102
G0 F9000 X51.697 Y123.649
G1 F2100 X51.223 Y123.649 E201.85499
G0 F9000 X51.326 Y123.613
G1 F2100 X51.326 Y123.879 E201.88013
G0 F9000 X52.383 Y125.982
G1 F2100 X52.526 Y125.982 E201.89364
G0 F9000 X104.33 Y126.162
G1 F2100 X104.33 Y125.179 E201.98653
G1 X104.713 Y124.881 E202.03239
G1 X104.713 Y124.303 E202.08701
G1 X104.763 Y124.314 E202.09185
G1 X105.164 Y123.99 E202.14057
G1 X105.164 Y123.074 E202.22713
G1 X105.565 Y123.155 E202.26579
G1 X105.565 Y123.461 E202.29471
G1 X105.973 Y123.542 E202.33402
G1 X105.303 Y125.002 E202.48582
G1 X104.633 Y126.239 E202.61876
G1 X104.33 Y126.162 E202.64831
G0 F9000 X104.469 Y125.982
G1 F2100 X104.612 Y125.982 E202.66182
G0 F9000 X104.985 Y125.296
G1 F2100 X104.985 Y124.314 E202.75462
G0 F9000 X105.303 Y123.649
G1 F2100 X105.768 Y123.649 E202.79856
G0 F9000 X117.021 Y123.532
G1 F2100 X117.428 Y123.451 E202.83778
G1 X117.428 Y123.145 E202.8667
G1 X117.838 Y123.065 E202.90617
G1 X117.838 Y123.991 E202.99368
G1 X118.242 Y124.315 E203.04262
G1 X118.278 Y124.307 E203.0461
G1 X118.278 Y124.866 E203.09893
G1 X118.667 Y125.171 E203.14564
G1 X118.667 Y126.162 E203.23929
G1 X118.366 Y126.239 E203.26865
G1 X117.798 Y125.211 E203.37964
G1 X117.505 Y124.588 E203.4447
G1 X117.35 Y124.279 E203.47737
G1 X117.021 Y123.532 E203.5545
G0 F9000 X117.223 Y123.649
G1 F2100 X117.697 Y123.649 E203.59929
G0 F9000 X118.383 Y125.982
G1 F2100 X118.526 Y125.982 E203.61281
G0 F9000 X117.835 Y99.926
G1 F2100 X117.435 Y99.847 E203.65134
G1 X117.435 Y99.541 E203.68026
G1 X117.026 Y99.46 E203.71966
G1 X117.248 Y98.946 E203.77257
G1 X117.49 Y98.445 E203.82514
G1 X117.714 Y97.961 E203.87554
G1 X118.368 Y96.764 E204.00444
G1 X118.67 Y96.84 E204.03387
G1 X118.67 Y97.818 E204.12629
G1 X118.287 Y98.121 E204.17244
G1 X118.287 Y98.698 E204.22697
G1 X118.236 Y98.687 E204.2319
G1 X117.835 Y99.013 E204.28074
G1 X117.835 Y99.926 E204.36701
G0 F9000 X117.861 Y97.986
G1 F2100 X118.231 Y97.986 E204.40198
G0 F9000 X105.979 Y99.467
G1 F2100 X105.572 Y99.547 E204.44118
G1 X105.572 Y99.853 E204.47009
G1 X105.162 Y99.934 E204.50959
G1 X105.162 Y99.005 E204.59738
G1 X104.759 Y98.681 E204.64624
G1 X104.722 Y98.689 E204.64982
G1 X104.722 Y98.144 E204.70132
G1 X104.333 Y97.841 E204.74792
G1 X104.333 Y96.841 E204.84242
G1 X104.635 Y96.764 E204.87187
G1 X105.31 Y98.015 E205.0062
G1 X105.498 Y98.418 E205.04823
G1 X105.675 Y98.776 E205.08597
G1 X105.979 Y99.467 E205.15731
G0 F9000 X104.985 Y98.682
G1 F2100 X104.985 Y97.709 E205.24925
G0 F9000 X105.136 Y97.986
G1 F2100 X104.746 Y97.986 E205.28611
G0 F9000 X126.7 Y87.351
G1 F2100 X127.019 Y87.115 E205.32361
G1 X127.837 Y86.553 E205.41739
G1 X127.875 Y86.535 E205.42137
G1 X128.484 Y86.134 E205.49027
G1 X129.608 Y85.447 E205.61476
G1 X131.076 Y84.667 E205.77185
G1 X132.234 Y84.12 E205.89288
G1 X134.174 Y83.283 E206.09254
G1 X135.276 Y82.953 E206.20125
G1 X135.812 Y82.782 E206.25442
G1 X136.621 Y82.555 E206.33382
G1 X137.61 Y82.3 E206.43034
G1 X138.039 Y82.196 E206.47205
G1 X138.871 Y82.023 E206.55236
G1 X140.083 Y81.817 E206.66854
G1 X141.548 Y81.649 E206.80789
G1 X141.936 Y81.611 E206.84473
G1 X143.026 Y81.54 E206.94795
G1 X143.579 Y81.521 E207.00024
G1 X144.291 Y81.511 E207.06753
G1 X146.459 Y81.558 E207.27246
G1 X146.797 Y81.59 E207.30454
G1 X147.35 Y81.627 E207.35692
G1 X148.637 Y81.787 E207.47947
G1 X149.596 Y81.937 E207.5712
G1 X150.125 Y82.032 E207.62199
G1 X150.913 Y82.193 E207.69799
G1 X151.915 Y82.427 E207.79523
G1 X153.276 Y82.812 E207.92889
G1 X154.007 Y83.045 E208.0014
G1 X154.484 Y83.213 E208.04919
G1 X155.414 Y83.555 E208.14283
G1 X156.239 Y83.892 E208.22704
G1 X157.222 Y84.328 E208.32866
G1 X157.807 Y84.603 E208.38975
G1 X158.917 Y85.188 E208.50832
G1 X160.371 Y86.025 E208.66686
G1 X160.952 Y86.411 E208.73278
G1 X161.18 Y86.552 E208.75811
G1 X162.278 Y87.34 E208.88583
G1 X161.676 Y87.644 E208.94956
G1 X161.442 Y88.026 E208.9919
G1 X161.453 Y134.957 E213.42687
G1 X161.688 Y135.338 E213.46918
G1 X162.3 Y135.647 E213.53396
G1 X161.859 Y135.973 E213.58579
G1 X161.284 Y136.367 E213.65166
G1 X160.743 Y136.717 E213.71255
G1 X160.467 Y136.873 E213.74251
G1 X159.814 Y137.297 E213.81609
